X:24
T:Bonaparte Crossing the Rhine
M:4/4
L:1/8
R:March
Z:AK/Fiddler’s Companion
Z:abc-edited-by Josh Larios <hades@elsewhere.org>, 2014.01.17
K:D
FG |: "D"A>B AF A2 de | f>e fa d2 dc | "G"Bc dB "D"AF DF | "A"E2 E>F E2 FG |
"D"A>B AF A2 de | f>e fa d2 dc | "G"Bc dB "A"AF EF |1 "D"D2 DE D2 FG :|2 "D"D2 DE D2 de ||
|: "D"f>e fg a2 dc | "G"B>A Bc d2 AA | "G"B>c dB "D"AF DF | "A"E2 E>F E2 FG |
"D"A>B AF A2 de | fe fa d2 dc | "G"B>c dB "A"AF EF |1 "D"D2 DE D2 de :|2 "D"D2 DE D2 |]

